!!!SOCIAL_FUNCTION:	bird dance songs
!!!PDT:	1956
!!!OTL: No_100_Stomp_Dance_Song_(b).krn
!!!LANG: Non-Tone
!!!LING_GROUP: Muskogean
!!!REG: Florida
**kern
*staff1
=1-
*clefF4
*k[f#]
*M3/4
2r
8G\L
8G\J
=2
2B\
4r
=3
8G\L
8G\J
8.G\L
16G\Jk
8.G\L
16G\Jk
=4
2B\
4r
=5
8G\L
8G\J
8.G\L
16G\Jk
8.G\L
16G\Jk
=6
2B\
4r
=7
8G\L
8G\J
8.G\L
16G\Jk
8.B\L
16A#\Jk
=8
2B\
4r
=9||
*M2/4
4B\
8.B\L
16B\Jk
=10||
*M3/4
2B\
4r
=11
8G\L
8G\J
8.G\L
16G\Jk
8.G\L
16G\Jk
=12
2B\
4r
=13
8G\L
8G\J
8.G\L
16G\Jk
(8c\L
8B\J)
=14
2B\
4r
=15
8B\L
8B\J
8.B\L
16B\Jk
8.B\L
16A#\Jk
=16
2B\
4r
=17
8G\L
8G\J
8.G\L
16G\Jk
8.G\L
16G\Jk
=18
2B\
4r
=19
8G\L
8G\J
8.G\L
16G\Jk
8.B\L
16A#\Jk
=20
2B\
4r
*-
